tools/download-figma-icons/icons/outlined-medium/candle.svg

<svg width="24" height="24" viewBox="0 0 24 24" fill="none" xmlns="http://www.w3.org/2000/svg">
<path fill-rule="evenodd" clip-rule="evenodd" d="M8.25 22.5V12C8.25 10.7595 9.2595 9.75 10.5 9.75H13.5C14.7405 9.75 15.75 10.7595 15.75 12V22.5H8.25ZM10.5 4.87498C10.5 3.75148 11.5275 1.64098 11.9738 1.49698C12.4725 1.64098 13.5 3.75148 13.5 4.87498C13.5 5.76523 12.5182 5.99998 12 5.99998C11.4818 5.99998 10.5 5.76523 10.5 4.87498ZM18.75 22.5H17.25V12C17.25 9.93225 15.5677 8.25 13.5 8.25H12.75V7.5C12.75 7.46925 12.7358 7.443 12.7327 7.413C13.929 7.15875 15 6.29325 15 4.875C15 3.62175 13.8217 0 12 0C10.1783 0 9 3.62175 9 4.875C9 6.29325 10.071 7.15875 11.2673 7.413C11.2642 7.443 11.25 7.46925 11.25 7.5V8.25H10.5C8.43225 8.25 6.75 9.93225 6.75 12V22.5H5.25C4.83525 22.5 4.5 22.8353 4.5 23.25C4.5 23.6647 4.83525 24 5.25 24H7.5H16.5H18.75C19.1648 24 19.5 23.6647 19.5 23.25C19.5 22.8353 19.1648 22.5 18.75 22.5Z" fill="black"/>
</svg>

<svg width="24" height="24" viewBox="0 0 24 24" fill="none" xmlns="http://www.w3.org/2000/svg"><path fill-rule="evenodd" clip-rule="evenodd" d="M8.25 22.5V12c0-1.24 1.01-2.25 2.25-2.25h3c1.24 0 2.25 1.01 2.25 2.25v10.5h-7.5ZM10.5 4.875c0-1.124 1.027-3.234 1.474-3.378.498.144 1.526 2.254 1.526 3.378C13.5 5.765 12.518 6 12 6s-1.5-.235-1.5-1.125ZM18.75 22.5h-1.5V12a3.754 3.754 0 0 0-3.75-3.75h-.75V7.5c0-.03-.014-.057-.017-.087C13.929 7.159 15 6.293 15 4.875 15 3.622 13.822 0 12 0S9 3.622 9 4.875c0 1.418 1.071 2.284 2.267 2.538-.003.03-.017.056-.017.087v.75h-.75A3.754 3.754 0 0 0 6.75 12v10.5h-1.5a.75.75 0 1 0 0 1.5h13.5a.75.75 0 1 0 0-1.5Z" fill="currentColor"/></svg>
